; generated by Slic3r 1.0.1-dev on 2014-02-19 at 23:47:57

; perimeters extrusion width = 0.50mm
; infill extrusion width = 0.67mm
; solid infill extrusion width = 0.67mm
; top infill extrusion width = 0.67mm

G21 ; set units to millimeters
M107
M104 S185 ; set temperature
G28 ; home all axes
;G1 Z5 F5000 ; lift nozzle

M109 S185 ; wait for temperature to be reached
G90 ; use absolute coordinates
G92 E0
M82 ; use absolute distances for extrusion
G1 F1800.000 E-2.00000
G92 E0
G1 Z0.400 F9000.000
G1 X72.034 Y55.644 F9000.000
G1 E2.00000 F1800.000
G1 X73.503 Y53.919 E2.10097 F1200
G1 X75.478 Y52.806 E2.20194
G1 X77.619 Y52.441 E2.29871
G1 X110.619 Y52.441 E3.76880
G1 X112.851 Y52.838 E3.86976
G1 X115.395 Y54.545 E4.00625
G1 X149.739 Y92.190 E6.27630
G1 X150.835 Y93.777 E6.36222
G1 X151.560 Y95.159 E6.43172
G1 X152.244 Y96.962 E6.51763
G1 X152.617 Y98.477 E6.58713
G1 X152.897 Y101.171 E6.70781
G1 X152.849 Y121.951 E7.63352
G1 X152.617 Y123.866 E7.71943
G1 X152.244 Y125.380 E7.78892
G1 X151.560 Y127.184 E7.87484
G1 X150.835 Y128.565 E7.94434
G1 X149.739 Y130.152 E8.03025
G1 X148.705 Y131.320 E8.09975
G1 X147.100 Y132.737 E8.19512
G1 X131.805 Y145.416 E9.08014
G1 X129.889 Y146.515 E9.17857
G1 X128.094 Y147.169 E9.26366
G1 X125.880 Y147.559 E9.36378
G1 X123.505 Y147.542 E9.46962
G1 X53.109 Y142.464 E12.61375
G1 X50.912 Y141.907 E12.71472
G1 X49.041 Y140.627 E12.81568
G1 X47.727 Y138.781 E12.91665
G1 X47.103 Y136.009 E13.04321
G1 X47.103 Y100.009 E14.64693
G1 X47.500 Y97.778 E14.74790
G1 X47.989 Y96.741 E14.79895
G1 X71.996 Y55.709 E16.91672
G1 X72.669 Y56.016 F9000.000
G1 X74.069 Y54.407 E17.01173 F1200
G1 X75.961 Y53.422 E17.10673
G1 X77.619 Y53.177 E17.18143
G1 X110.619 Y53.177 E18.65151
G1 X112.715 Y53.573 E18.74652
G1 X114.852 Y55.042 E18.86203
G1 X149.134 Y92.608 E21.12763
G1 X150.229 Y94.195 E21.21354
G1 X150.872 Y95.420 E21.27514
G1 X151.556 Y97.223 E21.36105
G1 X151.887 Y98.565 E21.42265
G1 X152.161 Y101.171 E21.53938
G1 X152.119 Y121.863 E22.46114
G1 X151.887 Y123.777 E22.54705
G1 X151.556 Y125.120 E22.60864
G1 X150.872 Y126.923 E22.69456
G1 X150.229 Y128.147 E22.75616
G1 X149.134 Y129.735 E22.84207
G1 X148.217 Y130.769 E22.90367
G1 X146.630 Y132.171 E22.99796
G1 X131.336 Y144.850 E23.88298
G1 X129.637 Y145.824 E23.97022
G1 X127.842 Y146.477 E24.05531
G1 X125.880 Y146.823 E24.14405
G1 X123.558 Y146.808 E24.24753
G1 X53.162 Y141.730 E27.39166
G1 X51.100 Y141.184 E27.48667
G1 X49.381 Y139.922 E27.58168
G1 X48.241 Y138.119 E27.67669
G1 X47.839 Y136.009 E27.77238
G1 X47.839 Y100.009 E29.37610
G1 X48.624 Y97.113 E29.50979
G1 X72.631 Y56.081 E31.62756
G1 F1800.000 E29.62756
G92 E0
G1 X109.484 Y60.048 F9000.000
G1 E2.00000 F1800.000
G1 X109.484 Y82.048 E2.98005 F1200
G1 X117.984 Y82.048 E3.35871
G1 X117.984 Y83.777 E3.43572
G1 X70.255 Y83.777 E5.56194
G1 X70.255 Y82.048 E5.63895
G1 X78.755 Y82.048 E6.01761
G1 X78.755 Y60.048 E6.99766
G1 X109.409 Y60.048 E8.36323
G1 X110.219 Y59.312 F9000.000
G1 X110.219 Y81.312 E9.34328 F1200
G1 X118.719 Y81.312 E9.72194
G1 X118.719 Y84.512 E9.86449
G1 X69.519 Y84.512 E12.05625
G1 X69.519 Y81.312 E12.19880
G1 X78.019 Y81.312 E12.57746
G1 X78.019 Y59.312 E13.55751
G1 X110.144 Y59.312 E14.98861
G1 X109.969 Y59.745 F9000.000
G1 X108.970 Y60.601 F9000.000
G1 X108.930 Y60.561 E14.99042 F1200
G1 X107.870 Y60.561 E15.02430
G1 X108.970 Y61.662 E15.07402
G1 X108.970 Y62.722 E15.10790
G1 X106.810 Y60.561 E15.20554
G1 X105.749 Y60.561 E15.23942
G1 X108.970 Y63.782 E15.38496
G1 X108.970 Y64.843 E15.41884
G1 X104.689 Y60.561 E15.61230
G1 X103.629 Y60.561 E15.64618
G1 X108.970 Y65.903 E15.88756
G1 X108.970 Y66.963 E15.92144
G1 X102.568 Y60.561 E16.21072
G1 X101.508 Y60.561 E16.24460
G1 X108.970 Y68.024 E16.58180
G1 X108.970 Y69.084 E16.61568
G1 X100.448 Y60.561 E17.00080
G1 X99.387 Y60.561 E17.03468
G1 X108.970 Y70.144 E17.46770
G1 X108.970 Y71.205 E17.50158
G1 X98.327 Y60.561 E17.98252
G1 X97.267 Y60.561 E18.01640
G1 X108.970 Y72.265 E18.54526
G1 X108.970 Y73.325 E18.57914
G1 X96.206 Y60.561 E19.15590
G1 X95.146 Y60.561 E19.18978
G1 X108.970 Y74.386 E19.81446
G1 X108.970 Y75.446 E19.84834
G1 X94.086 Y60.561 E20.52094
G1 X93.025 Y60.561 E20.55482
G1 X108.970 Y76.506 E21.27532
G1 X108.970 Y77.567 E21.30920
G1 X91.965 Y60.561 E22.07762
G1 X90.905 Y60.561 E22.11150
G1 X108.970 Y78.627 E22.92784
G1 X108.970 Y79.687 E22.96172
G1 X89.844 Y60.561 E23.82596
G1 X88.784 Y60.561 E23.85984
G1 X108.970 Y80.748 E24.77200
G1 X108.970 Y81.808 E24.80588
G1 X87.724 Y60.561 E25.76595
G1 X86.663 Y60.561 E25.79983
G1 X108.603 Y82.500 E26.79120
G1 X108.305 Y83.263 E26.81736
G1 X85.603 Y60.561 E27.84320
G1 X84.543 Y60.561 E27.87708
G1 X107.245 Y83.263 E28.90292
G1 X106.185 Y83.263 E28.93680
G1 X83.482 Y60.561 E29.96264
G1 X82.422 Y60.561 E29.99652
G1 X105.124 Y83.263 E31.02236
G1 X104.064 Y83.263 E31.05624
G1 X81.362 Y60.561 E32.08208
G1 X80.301 Y60.561 E32.11596
G1 X103.004 Y83.263 E33.14179
G1 X101.943 Y83.263 E33.17567
G1 X79.275 Y60.595 E34.19999
G1 X79.268 Y61.649 E34.23367
G1 X100.883 Y83.263 E35.21036
G1 X99.823 Y83.263 E35.24424
G1 X79.268 Y62.709 E36.17302
G1 X79.268 Y63.769 E36.20690
G1 X98.762 Y83.263 E37.08777
G1 X97.702 Y83.263 E37.12165
G1 X79.268 Y64.830 E37.95460
G1 X79.268 Y65.890 E37.98848
G1 X96.642 Y83.263 E38.77352
G1 X95.581 Y83.263 E38.80740
G1 X79.268 Y66.950 E39.54453
G1 X79.268 Y68.011 E39.57841
G1 X94.521 Y83.263 E40.26762
G1 X93.461 Y83.263 E40.30150
G1 X79.268 Y69.071 E40.94280
G1 X79.268 Y70.132 E40.97668
G1 X92.400 Y83.263 E41.57007
G1 X91.340 Y83.263 E41.60395
G1 X79.268 Y71.192 E42.14942
G1 X79.268 Y72.252 E42.18330
G1 X90.280 Y83.263 E42.68086
G1 X89.219 Y83.263 E42.71474
G1 X79.268 Y73.313 E43.16439
G1 X79.268 Y74.373 E43.19827
G1 X88.159 Y83.263 E43.60000
G1 X87.098 Y83.263 E43.63388
G1 X79.268 Y75.433 E43.98770
G1 X79.268 Y76.494 E44.02158
G1 X86.038 Y83.263 E44.32749
G1 X84.978 Y83.263 E44.36137
G1 X79.268 Y77.554 E44.61937
G1 X79.268 Y78.614 E44.65324
G1 X83.917 Y83.263 E44.86333
G1 X82.857 Y83.263 E44.89721
G1 X79.268 Y79.675 E45.05937
G1 X79.268 Y80.735 E45.09325
G1 X81.797 Y83.263 E45.20751
G1 X80.736 Y83.263 E45.24139
G1 X79.636 Y82.163 E45.29111
G1 X79.636 Y83.223 E45.32499
G1 X79.676 Y83.263 E45.32679
G1 X79.376 Y81.902 F9000.000
G1 X79.268 Y81.795 E45.33164 F1200
G1 X78.853 Y82.646 F9000.000
G1 X78.893 Y82.686 E45.33278 F1200
G1 X78.678 Y83.179 E45.34358 F1200
G1 X78.145 Y82.646 E45.35873 F1200
G1 X77.970 Y83.179 E45.37001 F1200
G1 X77.437 Y82.646 E45.38516 F1200
G1 X77.263 Y83.179 E45.39643 F1200
G1 X76.730 Y82.646 E45.41158 F1200
G1 X76.555 Y83.179 E45.42285 F1200
G1 X76.022 Y82.646 E45.43800 F1200
G1 X75.847 Y83.179 E45.44928 F1200
G1 X75.314 Y82.646 E45.46443 F1200
G1 X75.139 Y83.179 E45.47570 F1200
G1 X74.606 Y82.646 E45.49085 F1200
G1 X74.432 Y83.179 E45.50213 F1200
G1 X73.898 Y82.646 E45.51728 F1200
G1 X73.724 Y83.179 E45.52855 F1200
G1 X73.191 Y82.646 E45.54370 F1200
G1 X73.016 Y83.179 E45.55497 F1200
G1 X72.483 Y82.646 E45.57012 F1200
G1 X72.308 Y83.179 E45.58140 F1200
G1 X71.775 Y82.646 E45.59655 F1200
G1 X71.601 Y83.179 E45.60782 F1200
G1 X71.067 Y82.646 E45.62297 F1200
G1 X70.853 Y83.139 E45.63378 F1200
G1 X70.893 Y83.179 E45.63492 F1200
G1 F1800.000 E43.63492
G92 E0
G1 X109.346 Y83.139 F9000.000
G1 E2.00000 F1800.000
G1 X109.561 Y82.646 E2.01081 F1200
G1 X110.094 Y83.179 E2.02596 F1200
G1 X110.268 Y82.646 E2.03723 F1200
G1 X110.802 Y83.179 E2.05238 F1200
G1 X110.976 Y82.646 E2.06365 F1200
G1 X111.509 Y83.179 E2.07881 F1200
G1 X111.684 Y82.646 E2.09008 F1200
G1 X112.217 Y83.179 E2.10523 F1200
G1 X112.392 Y82.646 E2.11650 F1200
G1 X112.925 Y83.179 E2.13165 F1200
G1 X113.099 Y82.646 E2.14293 F1200
G1 X113.633 Y83.179 E2.15808 F1200
G1 X113.807 Y82.646 E2.16935 F1200
G1 X114.340 Y83.179 E2.18450 F1200
G1 X114.515 Y82.646 E2.19577 F1200
G1 X115.048 Y83.179 E2.21092 F1200
G1 X115.223 Y82.646 E2.22220 F1200
G1 X115.756 Y83.179 E2.23735 F1200
G1 X115.930 Y82.646 E2.24862 F1200
G1 X116.464 Y83.179 E2.26377 F1200
G1 X116.638 Y82.646 E2.27505 F1200
G1 X117.171 Y83.179 E2.29020 F1200
G1 X117.386 Y82.686 E2.30100 F1200
G1 X117.346 Y82.646 E2.30214 F1200
G1 F1800.000 E0.30214
G92 E0
G1 X109.386 Y83.179 F9000.000
G1 E2.00000 F1800.000
G1 X109.346 Y83.139 E2.00114 F1200
G1 F1800.000 E0.00114
G92 E0
G1 X71.439 Y101.145 F9000.000
G1 E2.00000 F1800.000
G1 X71.439 Y134.874 E3.50255 F1200
G1 X54.710 Y134.874 E4.24778
G1 X54.710 Y101.145 E5.75032
G1 X56.439 Y101.145 E5.82734
G1 X56.439 Y118.229 E6.58842
G1 X69.710 Y118.229 E7.17962
G1 X69.710 Y101.145 E7.94070
G1 X71.364 Y101.145 E8.01437
G1 X72.175 Y100.409 F9000.000
G1 X72.175 Y135.609 E9.58246 F1200
G1 X53.975 Y135.609 E10.39323
G1 X53.975 Y100.409 E11.96132
G1 X57.175 Y100.409 E12.10387
G1 X57.175 Y117.494 E12.86495
G1 X68.975 Y117.494 E13.39062
G1 X68.975 Y100.409 E14.15170
G1 X72.100 Y100.409 E14.29091
G1 X71.925 Y100.842 F9000.000
G1 F1800.000 E12.29091
G92 E0
G1 X70.926 Y119.150 F9000.000
G1 E2.00000 F1800.000
G1 X70.886 Y119.110 E2.00182 F1200
G1 X69.453 Y118.743 E2.04928
G1 X70.926 Y120.215 E2.11610
G1 X70.926 Y121.280 E2.15027
G1 X68.389 Y118.743 E2.26541
G1 X67.324 Y118.743 E2.29958
G1 X70.926 Y122.344 E2.46304
G1 X70.926 Y123.409 E2.49720
G1 X66.260 Y118.743 E2.70898
G1 X65.195 Y118.743 E2.74315
G1 X70.926 Y124.473 E3.00324
G1 X70.926 Y125.538 E3.03741
G1 X64.131 Y118.743 E3.34582
G1 X63.066 Y118.743 E3.37998
G1 X70.926 Y126.602 E3.73671
G1 X70.926 Y127.667 E3.77088
G1 X62.001 Y118.743 E4.17592
G1 X60.937 Y118.743 E4.21009
G1 X70.926 Y128.731 E4.66345
G1 X70.926 Y129.796 E4.69762
G1 X59.872 Y118.743 E5.19930
G1 X58.808 Y118.743 E5.23346
G1 X70.926 Y130.860 E5.78346
G1 X70.926 Y131.925 E5.81762
G1 X57.743 Y118.743 E6.41594
G1 X56.679 Y118.743 E6.45010
G1 X70.926 Y132.990 E7.09673
G1 X70.926 Y134.054 E7.13090
G1 X55.982 Y119.110 E7.80915
G1 X55.224 Y119.417 E7.83540
G1 X70.167 Y134.360 E8.51366
G1 X69.103 Y134.360 E8.54782
G1 X55.224 Y120.481 E9.17776
G1 X55.224 Y121.546 E9.21192
G1 X68.038 Y134.360 E9.79354
G1 X66.974 Y134.360 E9.82771
G1 X55.224 Y122.610 E10.36101
G1 X55.224 Y123.675 E10.39518
G1 X65.909 Y134.360 E10.88016
G1 X64.845 Y134.360 E10.91433
G1 X55.224 Y124.739 E11.35100
G1 X55.224 Y125.804 E11.38516
G1 X63.780 Y134.360 E11.77352
G1 X62.715 Y134.360 E11.80768
G1 X55.224 Y126.868 E12.14772
G1 X55.224 Y127.933 E12.18188
G1 X61.651 Y134.360 E12.47360
G1 X60.586 Y134.360 E12.50777
G1 X55.224 Y128.997 E12.75117
G1 X55.224 Y130.062 E12.78533
G1 X59.522 Y134.360 E12.98042
G1 X58.457 Y134.360 E13.01458
G1 X55.224 Y131.127 E13.16135
G1 X55.224 Y132.191 E13.19551
G1 X57.393 Y134.360 E13.29396
G1 X56.328 Y134.360 E13.32813
G1 X55.224 Y133.256 E13.37826
G1 X55.224 Y134.320 E13.41243
G1 X55.264 Y134.360 E13.41424
G1 F1800.000 E11.41424
G92 E0
G1 X55.348 Y118.367 F9000.000
G1 E2.00000 F1800.000
G1 X55.308 Y118.327 E2.00114 F1200
G1 X55.841 Y118.149 E2.01251 F1200
G1 X55.308 Y117.616 E2.02776 F1200
G1 X55.841 Y117.437 E2.03913 F1200
G1 X55.308 Y116.904 E2.05438 F1200
G1 X55.841 Y116.726 E2.06575 F1200
G1 X55.308 Y116.192 E2.08099 F1200
G1 X55.841 Y116.014 E2.09236 F1200
G1 X55.308 Y115.481 E2.10761 F1200
G1 X55.841 Y115.302 E2.11898 F1200
G1 X55.308 Y114.769 E2.13423 F1200
G1 X55.841 Y114.591 E2.14560 F1200
G1 X55.308 Y114.058 E2.16084 F1200
G1 X55.841 Y113.879 E2.17221 F1200
G1 X55.308 Y113.346 E2.18746 F1200
G1 X55.841 Y113.168 E2.19883 F1200
G1 X55.308 Y112.635 E2.21408 F1200
G1 X55.841 Y112.456 E2.22544 F1200
G1 X55.308 Y111.923 E2.24069 F1200
G1 X55.841 Y111.745 E2.25206 F1200
G1 X55.308 Y111.211 E2.26731 F1200
G1 X55.841 Y111.033 E2.27868 F1200
G1 X55.308 Y110.500 E2.29392 F1200
G1 X55.841 Y110.321 E2.30529 F1200
G1 X55.308 Y109.788 E2.32054 F1200
G1 X55.841 Y109.610 E2.33191 F1200
G1 X55.308 Y109.077 E2.34716 F1200
G1 X55.841 Y108.898 E2.35853 F1200
G1 X55.308 Y108.365 E2.37377 F1200
G1 X55.841 Y108.187 E2.38514 F1200
G1 X55.308 Y107.654 E2.40039 F1200
G1 X55.841 Y107.475 E2.41176 F1200
G1 X55.308 Y106.942 E2.42701 F1200
G1 X55.841 Y106.764 E2.43838 F1200
G1 X55.308 Y106.230 E2.45362 F1200
G1 X55.841 Y106.052 E2.46499 F1200
G1 X55.308 Y105.519 E2.48024 F1200
G1 X55.841 Y105.340 E2.49161 F1200
G1 X55.308 Y104.807 E2.50686 F1200
G1 X55.841 Y104.629 E2.51823 F1200
G1 X55.308 Y104.096 E2.53347 F1200
G1 X55.841 Y103.917 E2.54484 F1200
G1 X55.308 Y103.384 E2.56009 F1200
G1 X55.841 Y103.206 E2.57146 F1200
G1 X55.308 Y102.673 E2.58671 F1200
G1 X55.841 Y102.494 E2.59807 F1200
G1 X55.308 Y101.961 E2.61332 F1200
G1 X55.801 Y101.743 E2.62423 F1200
G1 X55.841 Y101.783 E2.62537 F1200
G1 F1800.000 E0.62537
G92 E0
G1 X70.308 Y101.961 F9000.000
G1 E2.00000 F1800.000
G1 X70.801 Y101.743 E2.01091 F1200
G1 X70.841 Y101.783 E2.01205 F1200
G1 X70.308 Y101.961 F9000.000
G1 X70.841 Y102.494 E2.02730 F1200
G1 X70.308 Y102.673 E2.03867 F1200
G1 X70.841 Y103.206 E2.05391 F1200
G1 X70.308 Y103.384 E2.06528 F1200
G1 X70.841 Y103.917 E2.08053 F1200
G1 X70.308 Y104.096 E2.09190 F1200
G1 X70.841 Y104.629 E2.10715 F1200
G1 X70.308 Y104.807 E2.11852 F1200
G1 X70.841 Y105.340 E2.13376 F1200
G1 X70.308 Y105.519 E2.14513 F1200
G1 X70.841 Y106.052 E2.16038 F1200
G1 X70.308 Y106.230 E2.17175 F1200
G1 X70.841 Y106.764 E2.18700 F1200
G1 X70.308 Y106.942 E2.19837 F1200
G1 X70.841 Y107.475 E2.21361 F1200
G1 X70.308 Y107.654 E2.22498 F1200
G1 X70.841 Y108.187 E2.24023 F1200
G1 X70.308 Y108.365 E2.25160 F1200
G1 X70.841 Y108.898 E2.26685 F1200
G1 X70.308 Y109.077 E2.27822 F1200
G1 X70.841 Y109.610 E2.29346 F1200
G1 X70.308 Y109.788 E2.30483 F1200
G1 X70.841 Y110.321 E2.32008 F1200
G1 X70.308 Y110.500 E2.33145 F1200
G1 X70.841 Y111.033 E2.34670 F1200
G1 X70.308 Y111.211 E2.35806 F1200
G1 X70.841 Y111.745 E2.37331 F1200
G1 X70.308 Y111.923 E2.38468 F1200
G1 X70.841 Y112.456 E2.39993 F1200
G1 X70.308 Y112.635 E2.41130 F1200
G1 X70.841 Y113.168 E2.42654 F1200
G1 X70.308 Y113.346 E2.43791 F1200
G1 X70.841 Y113.879 E2.45316 F1200
G1 X70.308 Y114.058 E2.46453 F1200
G1 X70.841 Y114.591 E2.47978 F1200
G1 X70.308 Y114.769 E2.49115 F1200
G1 X70.841 Y115.302 E2.50639 F1200
G1 X70.308 Y115.481 E2.51776 F1200
G1 X70.841 Y116.014 E2.53301 F1200
G1 X70.308 Y116.192 E2.54438 F1200
G1 X70.841 Y116.726 E2.55963 F1200
G1 X70.308 Y116.904 E2.57100 F1200
G1 X70.841 Y117.437 E2.58624 F1200
G1 X70.308 Y117.616 E2.59761 F1200
G1 X70.841 Y118.149 E2.61286 F1200
G1 X70.308 Y118.327 E2.62423 F1200
G1 X70.348 Y118.367 E2.62537 F1200
G1 F1800.000 E0.62537
G92 E0
G1 X89.120 Y114.359 F9000.000
G1 E2.00000 F1800.000
G1 X89.002 Y113.738 E2.02818 F1200
G1 X88.962 Y113.106 E2.05637
G1 X89.002 Y112.475 E2.08455
G1 X89.120 Y111.853 E2.11273
G1 X89.316 Y111.252 E2.14092
G1 X89.585 Y110.679 E2.16910
G1 X89.924 Y110.145 E2.19729
G1 X90.328 Y109.658 E2.22547
G1 X90.789 Y109.225 E2.25365
G1 X91.301 Y108.853 E2.28184
G1 X91.855 Y108.548 E2.31002
G1 X92.443 Y108.315 E2.33820
G1 X93.056 Y108.158 E2.36639
G1 X93.684 Y108.078 E2.39457
G1 X94.316 Y108.078 E2.42276
G1 X94.944 Y108.158 E2.45094
G1 X95.557 Y108.315 E2.47912
G1 X96.145 Y108.548 E2.50731
G1 X96.699 Y108.853 E2.53549
G1 X97.211 Y109.225 E2.56367
G1 X97.672 Y109.658 E2.59186
G1 X98.076 Y110.145 E2.62004
G1 X98.415 Y110.679 E2.64822
G1 X98.684 Y111.252 E2.67641
G1 X98.880 Y111.853 E2.70459
G1 X98.998 Y112.475 E2.73278
G1 X99.038 Y113.106 E2.76096
G1 X98.998 Y113.738 E2.78914
G1 X98.880 Y114.359 E2.81733
G1 X98.684 Y114.961 E2.84551
G1 X98.415 Y115.533 E2.87369
G1 X98.076 Y116.067 E2.90188
G1 X97.672 Y116.555 E2.93006
G1 X97.211 Y116.988 E2.95825
G1 X96.699 Y117.360 E2.98643
G1 X96.145 Y117.665 E3.01461
G1 X95.557 Y117.898 E3.04280
G1 X94.944 Y118.055 E3.07098
G1 X94.316 Y118.134 E3.09916
G1 X93.684 Y118.134 E3.12735
G1 X93.056 Y118.055 E3.15553
G1 X92.443 Y117.898 E3.18372
G1 X91.855 Y117.665 E3.21190
G1 X91.301 Y117.360 E3.24008
G1 X90.789 Y116.988 E3.26827
G1 X90.328 Y116.555 E3.29645
G1 X89.924 Y116.067 E3.32463
G1 X89.585 Y115.533 E3.35282
G1 X89.316 Y114.961 E3.38100
G1 X89.144 Y114.431 E3.40584
G1 X89.834 Y114.176 F9000.000
G1 X89.733 Y113.645 E3.42990 F1200
G1 X89.699 Y113.106 E3.45396
G1 X89.733 Y112.567 E3.47802
G1 X89.834 Y112.037 E3.50208
G1 X90.001 Y111.523 E3.52614
G1 X90.231 Y111.034 E3.55021
